src/pos-icons/volume-mute.svg

<svg height="24" viewBox="0 0 24 24" width="24" xmlns="http://www.w3.org/2000/svg"><path d="m3 9h4l5-5v16l-5-5h-4zm13.59 3-2.59-2.59 1.41-1.41 2.59 2.59 2.59-2.59 1.41 1.41-2.59 2.59 2.59 2.59-1.41 1.41-2.59-2.59-2.59 2.59-1.41-1.41z"/></svg>

<?xml version="1.0" encoding="UTF-8"?><!DOCTYPE svg PUBLIC "-//W3C//DTD SVG 1.1//EN" "http://www.w3.org/Graphics/SVG/1.1/DTD/svg11.dtd"><svg xmlns="http://www.w3.org/2000/svg" xmlns:xlink="http://www.w3.org/1999/xlink" version="1.1" id="mdi-volume-mute" width="24" height="24" viewBox="0 0 24 24"><path d="M3,9H7L12,4V20L7,15H3V9M16.59,12L14,9.41L15.41,8L18,10.59L20.59,8L22,9.41L19.41,12L22,14.59L20.59,16L18,13.41L15.41,16L14,14.59L16.59,12Z" /></svg>
